packages/icons/src/components/Logo/assets/dark/gitlab.svg

<svg width="20" height="20" viewBox="0 0 20 20" fill="none" xmlns="http://www.w3.org/2000/svg">
<path d="M19.6675 7.99202L19.6393 7.92016L16.9171 0.815761C16.8618 0.676482 16.7637 0.558344 16.637 0.478349C16.5102 0.39966 16.3624 0.361761 16.2134 0.369768C16.0644 0.377776 15.9215 0.431306 15.8039 0.523129C15.6876 0.617589 15.6032 0.745586 15.5623 0.8897L13.7242 6.51324H6.28136L4.4433 0.8897C4.40343 0.744801 4.31889 0.616163 4.20169 0.522088C4.0841 0.430264 3.94116 0.376735 3.79218 0.368727C3.64319 0.360719 3.49534 0.398618 3.36858 0.477308C3.24218 0.55768 3.1442 0.675697 3.08844 0.81472L0.361027 7.916L0.333951 7.98785C-0.0579236 9.01176 -0.106294 10.1353 0.196132 11.1891C0.498559 12.2429 1.13539 13.1698 2.0106 13.8301L2.01997 13.8374L2.04496 13.8551L6.1918 16.9605L8.24335 18.5132L9.49302 19.4567C9.6392 19.5677 9.81769 19.6278 10.0012 19.6278C10.1848 19.6278 10.3632 19.5677 10.5094 19.4567L11.7591 18.5132L13.8106 16.9605L17.9825 13.8363L17.9929 13.828C18.8661 13.1676 19.5015 12.2417 19.8035 11.1893C20.1054 10.1369 20.0577 9.01495 19.6675 7.99202Z" fill="#E24329"/>
<path d="M19.6675 7.99178L19.6393 7.91992C18.3129 8.19219 17.063 8.75403 15.9788 9.56533L10.0002 14.086C12.0361 15.6262 13.8086 16.9644 13.8086 16.9644L17.9804 13.8403L17.9908 13.8319C18.8653 13.1716 19.5016 12.245 19.804 11.1917C20.1064 10.1385 20.0585 9.01546 19.6675 7.99178Z" fill="#FC6D26"/>
<path d="M6.19177 16.9648L8.24332 18.5176L9.493 19.4611C9.63917 19.5721 9.81766 19.6321 10.0012 19.6321C10.1847 19.6321 10.3632 19.5721 10.5094 19.4611L11.7591 18.5176L13.8106 16.9648C13.8106 16.9648 12.0361 15.6225 10.0002 14.0864C7.96423 15.6225 6.19177 16.9648 6.19177 16.9648Z" fill="#FCA326"/>
<path d="M4.02049 9.56559C2.93721 8.75265 1.68755 8.18934 0.361027 7.91602L0.333951 7.98787C-0.0579236 9.01178 -0.106294 10.1353 0.196132 11.1891C0.498559 12.2429 1.13539 13.1698 2.0106 13.8301L2.01997 13.8374L2.04496 13.8551L6.1918 16.9605L10.0002 14.0821L4.02049 9.56559Z" fill="#FC6D26"/>
</svg>

<svg xmlns="http://www.w3.org/2000/svg" width="20" height="20" fill="none" viewBox="0 0 20 20">
    <path fill="#e24329" d="m19.668 7.992-.029-.072L16.917.816a.71.71 0 0 0-.704-.446.73.73 0 0 0-.41.153.73.73 0 0 0-.24.367l-1.839 5.623H6.281L4.443.89a.7.7 0 0 0-.241-.368.73.73 0 0 0-.833-.045.7.7 0 0 0-.28.338L.36 7.916l-.027.072A5.055 5.055 0 0 0 2.01 13.83l.009.007.025.018 4.147 3.105 2.051 1.553 1.25.944a.84.84 0 0 0 1.016 0l1.25-.944 2.052-1.553 4.172-3.124.01-.008a5.06 5.06 0 0 0 1.675-5.836"/>
    <path fill="#fc6d26" d="m19.668 7.992-.029-.072a9.2 9.2 0 0 0-3.66 1.645L10 14.086l3.809 2.878 4.171-3.124.01-.008a5.06 5.06 0 0 0 1.678-5.84"/>
    <path fill="#fca326" d="m6.192 16.965 2.051 1.553 1.25.943a.84.84 0 0 0 1.016 0l1.25-.943 2.052-1.553L10 14.086z"/>
    <path fill="#fc6d26" d="M4.02 9.566a9.2 9.2 0 0 0-3.659-1.65l-.027.072a5.055 5.055 0 0 0 1.677 5.842l.009.007.025.018 4.147 3.105L10 14.083z"/>
</svg>
